; generated by Slic3r 1.1.7 on 2014-08-29 at 02:11:18

; perimeters extrusion width = 0.50mm
; infill extrusion width = 0.52mm
; solid infill extrusion width = 0.52mm
; top infill extrusion width = 0.52mm

G21 ; set units to millimeters
M107
M104 S205 ; set temperature
G28 ; home all axes
G1 Z5 F5000 ; lift nozzle

M109 S205 ; wait for temperature to be reached
G90 ; use absolute coordinates
G92 E0
M82 ; use absolute distances for extrusion
G1 F1800.000 E-1.00000
G92 E0
G1 Z0.500 F7800.000
G1 X4.782 Y4.306 F7800.000
G1 E1.00000 F1800.000
G1 X5.912 Y3.276 E1.28364 F1080.000
G1 X8.449 Y1.433 E1.86555
G1 X9.696 Y0.714 E2.13272
G1 X12.561 Y-0.562 E2.71472
G1 X13.932 Y-1.008 E2.98225
G1 X16.999 Y-1.660 E3.56411
G1 X18.432 Y-1.811 E3.83155
G1 X121.568 Y-1.811 E22.97055
G1 X123.001 Y-1.660 E23.23799
G1 X126.069 Y-1.008 E23.81993 F1080.000
G1 X127.439 Y-0.563 E24.08723
G1 X130.304 Y0.713 E24.66920
G1 X131.551 Y1.433 E24.93658
G1 X134.080 Y3.270 E25.51652
G1 X135.159 Y4.241 E25.78591
G1 X137.258 Y6.572 E26.36809
G1 X138.105 Y7.737 E26.63526
G1 X139.673 Y10.453 E27.21719
G1 X140.259 Y11.769 E27.48457
G1 X141.228 Y14.752 E28.06652
G1 X141.527 Y16.161 E28.33388
G1 X141.855 Y19.279 E28.91580
G1 X141.855 Y20.720 E29.18321
G1 X141.527 Y23.839 E29.76514
G1 X141.228 Y25.248 E30.03249
G1 X139.868 Y29.184 E30.80509
G1 X89.672 Y129.547 E51.62910
G1 X88.104 Y132.263 E52.21109
G1 X87.257 Y133.429 E52.47854
G1 X85.159 Y135.759 E53.06037
G1 X84.088 Y136.724 E53.32783
G1 X81.551 Y138.567 E53.90973
G1 X80.304 Y139.286 E54.17690
G1 X77.439 Y140.562 E54.75891
G1 X76.068 Y141.008 E55.02643
G1 X73.001 Y141.660 E55.60829
G1 X71.568 Y141.811 E55.87573
G1 X68.432 Y141.811 E56.45768
G1 X66.960 Y141.652 E56.73235
G1 X63.932 Y141.008 E57.30694
G1 X62.561 Y140.563 E57.57431
G1 X59.696 Y139.287 E58.15629
G1 X58.449 Y138.567 E58.42367
G1 X55.912 Y136.724 E59.00559
G1 X54.841 Y135.759 E59.27301
G1 X52.742 Y133.429 E59.85493
G1 X51.895 Y132.263 E60.12236
G1 X50.132 Y129.183 E60.78091
G1 X-0.258 Y28.231 E81.71878
G1 X-1.227 Y25.249 E82.30063
G1 X-1.527 Y23.840 E82.56799
G1 X-1.855 Y20.721 E83.14998
G1 X-1.855 Y19.279 E83.41753
G1 X-1.527 Y16.160 E83.99951
G1 X-1.227 Y14.751 E84.26688
G1 X-0.258 Y11.769 E84.84873
G1 X0.328 Y10.453 E85.11607
G1 X1.896 Y7.737 E85.69809
G1 X2.743 Y6.571 E85.96549
G1 X4.732 Y4.362 E86.51713
G1 F1800.000 E85.51713
G92 E0
G1 X70.000 Y91.603 F7800.000
G1 E1.00000 F1800.000
G1 X108.311 Y14.980 E16.89728 F540.000
G1 X109.724 Y12.534 E17.42150
G1 X111.501 Y10.561 E17.91427
G1 X113.649 Y9.000 E18.40704
G1 X116.075 Y7.919 E18.89990
G1 X118.672 Y7.367 E19.39259
G1 X121.328 Y7.367 E19.88538
G1 X123.925 Y7.919 E20.37806
G1 X126.351 Y9.000 E20.87093
G1 X128.499 Y10.561 E21.36370
G1 X130.276 Y12.534 E21.85647
G1 X131.604 Y14.834 E22.34925
G1 X132.424 Y17.359 E22.84201
G1 X132.702 Y20.000 E23.33479
G1 X132.424 Y22.641 E23.82757
G1 X131.583 Y25.230 E24.33282
G1 X81.690 Y125.018 E45.03611
G1 X80.276 Y127.466 E45.56078
G1 X78.499 Y129.439 E46.05344
G1 X76.351 Y131.000 E46.54623
G1 X73.925 Y132.081 E47.03910
G1 X71.328 Y132.633 E47.53179
G1 X68.672 Y132.633 E48.02458
G1 X66.075 Y132.081 E48.51727
G1 X63.649 Y131.000 E49.01012
G1 X61.501 Y129.439 E49.50290
G1 X59.724 Y127.466 E49.99567
G1 X58.311 Y125.020 E50.51989
G1 X8.418 Y25.232 E71.22325
G1 X7.576 Y22.641 E71.72878
G1 X7.298 Y20.000 E72.22160
G1 X7.576 Y17.359 E72.71442
G1 X8.396 Y14.834 E73.20714
G1 X9.724 Y12.534 E73.69996
G1 X11.501 Y10.561 E74.19263
G1 X13.649 Y9.000 E74.68541
G1 X16.075 Y7.919 E75.17829
G1 X18.672 Y7.367 E75.67098
G1 X21.328 Y7.367 E76.16376
G1 X23.925 Y7.919 E76.65645
G1 X26.351 Y9.000 E77.14932
G1 X28.499 Y10.561 E77.64211
G1 X30.276 Y12.534 E78.13477
G1 X31.690 Y14.982 E78.65945
G1 X69.966 Y91.536 E94.54241
G1 X70.000 Y89.607 F7800.000
G1 X107.525 Y14.557 E110.11334 F540.000
G1 X108.998 Y12.006 E110.65993
G1 X110.900 Y9.893 E111.18753
G1 X113.200 Y8.222 E111.71513
G1 X115.798 Y7.066 E112.24280
G1 X118.578 Y6.475 E112.77032
G1 X121.422 Y6.475 E113.29793
G1 X124.202 Y7.066 E113.82545
G1 X126.800 Y8.222 E114.35312
G1 X129.100 Y9.893 E114.88072
G1 X131.002 Y12.006 E115.40831
G1 X132.424 Y14.469 E115.93592
G1 X133.302 Y17.172 E116.46350
G1 X133.600 Y20.000 E116.99110
G1 X133.302 Y22.828 E117.51870
G1 X132.411 Y25.570 E118.05377
G1 X82.476 Y125.441 E138.77443
G1 X81.002 Y127.994 E139.32148
G1 X79.100 Y130.106 E139.84897
G1 X76.800 Y131.777 E140.37657
G1 X74.202 Y132.934 E140.90426
G1 X71.422 Y133.525 E141.43178
G1 X68.578 Y133.525 E141.95940
G1 X65.798 Y132.934 E142.48692
G1 X63.200 Y131.778 E143.01459
G1 X60.900 Y130.107 E143.54219
G1 X58.998 Y127.994 E144.06978
G1 X57.525 Y125.443 E144.61638
G1 X7.589 Y25.571 E165.33710
G1 X6.698 Y22.828 E165.87244
G1 X6.400 Y20.000 E166.40010
G1 X6.698 Y17.172 E166.92775
G1 X7.576 Y14.469 E167.45528
G1 X8.998 Y12.006 E167.98293
G1 X10.900 Y9.894 E168.51042
G1 X13.200 Y8.223 E169.03802
G1 X15.798 Y7.066 E169.56571
G1 X18.578 Y6.475 E170.09323
G1 X21.422 Y6.475 E170.62084
G1 X24.202 Y7.066 E171.14836
G1 X26.800 Y8.223 E171.67605
G1 X29.100 Y9.894 E172.20365
G1 X31.002 Y12.006 E172.73114
G1 X32.476 Y14.559 E173.27821
G1 X69.966 Y89.540 E188.83481
G1 X70.000 Y87.611 F7800.000
G1 X106.738 Y14.134 E204.07939 F378.000
G1 X108.271 Y11.479 E204.64836
G1 X110.299 Y9.226 E205.21078
G1 X112.751 Y7.445 E205.77320
G1 X115.520 Y6.212 E206.33568
G1 X118.485 Y5.582 E206.89804
G1 X121.515 Y5.582 E207.46048
G1 X124.480 Y6.212 E208.02283
G1 X127.249 Y7.445 E208.58531
G1 X129.701 Y9.226 E209.14773
G1 X131.729 Y11.479 E209.71015
G1 X133.244 Y14.103 E210.27258
G1 X134.180 Y16.986 E210.83498
G1 X134.497 Y20.000 E211.39740
G1 X134.180 Y23.014 E211.95983
G1 X133.240 Y25.909 E212.52471
G1 X83.262 Y125.864 E233.26274
G1 X81.728 Y128.521 E233.83217
G1 X79.701 Y130.773 E234.39450
G1 X77.249 Y132.555 E234.95690
G1 X74.480 Y133.788 E235.51941
G1 X71.515 Y134.418 E236.08176
G1 X68.485 Y134.418 E236.64421
G1 X65.520 Y133.788 E237.20656
G1 X62.751 Y132.555 E237.76904
G1 X60.299 Y130.774 E238.33146
G1 X58.271 Y128.521 E238.89388
G1 X56.738 Y125.866 E239.46286
G1 X6.761 Y25.911 E260.20095
G1 X5.820 Y23.014 E260.76611
G1 X5.503 Y20.000 E261.32859
G1 X5.820 Y16.986 E261.89107
G1 X6.756 Y14.103 E262.45342
G1 X8.272 Y11.479 E263.01589
G1 X10.299 Y9.227 E263.57821
G1 X12.751 Y7.445 E264.14062
G1 X15.520 Y6.212 E264.70313
G1 X18.485 Y5.582 E265.26548
G1 X21.515 Y5.582 E265.82792
G1 X24.480 Y6.212 E266.39027
G1 X27.249 Y7.445 E266.95278
G1 X29.701 Y9.227 E267.51519
G1 X31.728 Y11.479 E268.07751
G1 X33.262 Y14.136 E268.64695
G1 X69.966 Y87.544 E283.87720
G1 X70.389 Y87.925 F7800.000
G1 X68.321 Y89.649 F7800.000
G1 X14.333 Y35.660 E298.04576 F1080.000
G1 X13.064 Y33.122 F7800.000
G1 X67.052 Y87.110 E312.21432 F1080.000
G1 X65.783 Y84.572 F7800.000
G1 X11.794 Y30.583 E326.38287 F1080.000
G1 X10.525 Y28.045 F7800.000
G1 X64.514 Y82.033 E340.55143 F1080.000
G1 X63.244 Y79.495 F7800.000
G1 X9.256 Y25.506 E354.71998 F1080.000
G1 X8.512 Y23.493 F7800.000
G1 X61.975 Y76.956 E368.75067 F1080.000
G1 X60.706 Y74.418 F7800.000
G1 X8.121 Y21.833 E382.55079 F1080.000
G1 X7.972 Y20.415 E382.81545
G1 X59.437 Y71.879 E396.32162
G1 X58.168 Y69.341 F7800.000
G1 X8.014 Y19.187 E409.48370 F1080.000
G1 X8.135 Y18.039 E409.69800
G1 X56.898 Y66.802 E422.49530
G1 X55.629 Y64.264 F7800.000
G1 X8.355 Y16.990 E434.90171 F1080.000
G1 X8.666 Y16.032 E435.08863
G1 X54.360 Y61.725 E447.08025
G1 X53.091 Y59.187 F7800.000
G1 X8.980 Y15.077 E458.65640 F1080.000
G1 X9.445 Y14.272 E458.82883
G1 X51.821 Y56.648 E469.94997
G1 X50.552 Y54.110 F7800.000
G1 X9.909 Y13.467 E480.61610 F1080.000
G1 X10.415 Y12.704 E480.78605
G1 X49.283 Y51.571 E490.98638
G1 X48.014 Y49.033 F7800.000
G1 X11.016 Y12.036 E500.69580 F1080.000
G1 X11.618 Y11.368 E500.86258
G1 X46.744 Y46.495 E510.08108
G1 X45.475 Y43.956 F7800.000
G1 X12.285 Y10.766 E518.79134 F1080.000
G1 X13.020 Y10.232 E518.95997
G1 X44.206 Y41.418 E527.14420
G1 X42.937 Y38.879 F7800.000
G1 X13.756 Y9.698 E534.80241 F1080.000
G1 X14.593 Y9.266 E534.97726
G1 X41.667 Y36.341 E542.08257
G1 X40.398 Y33.802 F7800.000
G1 X15.471 Y8.875 E548.62434 F1080.000
G1 X16.364 Y8.499 E548.80419
G1 X39.129 Y31.264 E554.77842
G1 X37.860 Y28.725 F7800.000
G1 X17.411 Y8.277 E560.14486 F1080.000
G1 X18.458 Y8.054 E560.34344
G1 X36.591 Y26.187 E565.10209
G1 X35.321 Y23.648 F7800.000
G1 X19.668 Y7.995 E569.21019 F1080.000
G1 X20.937 Y7.995 E569.44572
G1 X34.052 Y21.110 E572.88762
G1 X32.783 Y18.571 F7800.000
G1 X22.461 Y8.250 E575.59644 F1080.000
G1 X24.217 Y8.736 E575.93457
G1 X31.514 Y16.033 E577.84948
G1 X29.918 Y13.168 F7800.000
G1 X26.988 Y10.238 E578.61834 F1080.000
G1 X15.602 Y38.199 F7800.000
G1 X88.133 Y110.729 E597.65297 F1080.000
G1 X88.556 Y109.883 E597.82853
G1 X70.560 Y91.887 E602.55138
G1 X70.983 Y91.041 E602.72693
G1 X88.979 Y109.037 E607.44978
G1 X89.402 Y108.191 E607.62534
G1 X71.406 Y90.194 E612.34819
G1 X71.829 Y89.348 E612.52374
G1 X89.825 Y107.344 E617.24659
G1 X90.248 Y106.498 E617.42215
G1 X72.252 Y88.502 E622.14500
G1 X72.675 Y87.656 E622.32055
G1 X90.671 Y105.652 E627.04340
G1 X91.094 Y104.806 E627.21896
G1 X73.098 Y86.810 E631.94181
G1 X73.521 Y85.964 E632.11736
G1 X91.517 Y103.960 E636.84021
G1 X91.940 Y103.114 E637.01577
G1 X73.944 Y85.117 E641.73862
G1 X74.367 Y84.271 E641.91417
G1 X92.363 Y102.267 E646.63702
G1 X92.786 Y101.421 E646.81258
G1 X74.790 Y83.425 E651.53543
G1 X75.213 Y82.579 E651.71099
G1 X93.210 Y100.575 E656.43383
G1 X93.633 Y99.729 E656.60939
G1 X75.636 Y81.733 E661.33224
G1 X76.060 Y80.887 E661.50780
G1 X94.056 Y98.883 E666.23065
G1 X94.479 Y98.037 E666.40620
G1 X76.483 Y80.040 E671.12905
G1 X76.906 Y79.194 E671.30461
G1 X94.902 Y97.190 E676.02746
G1 X95.325 Y96.344 E676.20301
G1 X77.329 Y78.348 E680.92586
G1 X77.752 Y77.502 E681.10142
G1 X95.748 Y95.498 E685.82427
G1 X96.171 Y94.652 E685.99982
G1 X78.175 Y76.656 E690.72267
G1 X78.598 Y75.810 E690.89823
G1 X96.594 Y93.806 E695.62108
G1 X97.017 Y92.960 E695.79663
G1 X79.021 Y74.964 E700.51948
G1 X79.444 Y74.117 E700.69504
G1 X97.440 Y92.114 E705.41789
G1 X97.863 Y91.267 E705.59345
G1 X79.867 Y73.271 E710.31629
G1 X80.290 Y72.425 E710.49185
G1 X98.287 Y90.421 E715.21470
G1 X98.710 Y89.575 E715.39026
G1 X80.713 Y71.579 E720.11311
G1 X81.136 Y70.733 E720.28866
G1 X99.133 Y88.729 E725.01151
G1 X99.556 Y87.883 E725.18707
G1 X81.560 Y69.887 E729.90992
G1 X81.983 Y69.040 E730.08547
G1 X99.979 Y87.037 E734.80832
G1 X100.402 Y86.190 E734.98388
G1 X82.406 Y68.194 E739.70673
G1 X82.829 Y67.348 E739.88229
G1 X100.825 Y85.344 E744.60514
G1 X101.248 Y84.498 E744.78069
G1 X83.252 Y66.502 E749.50354
G1 X83.675 Y65.656 E749.67910
G1 X101.671 Y83.652 E754.40195
G1 X102.094 Y82.806 E754.57750
G1 X84.098 Y64.810 E759.30035
G1 X84.521 Y63.963 E759.47591
G1 X102.517 Y81.960 E764.19876
G1 X102.940 Y81.113 E764.37432
G1 X84.944 Y63.117 E769.09717
G1 X85.367 Y62.271 E769.27272
G1 X103.363 Y80.267 E773.99557
G1 X103.787 Y79.421 E774.17113
G1 X85.790 Y61.425 E778.89398
G1 X86.213 Y60.579 E779.06954
G1 X104.210 Y78.575 E783.79239
G1 X104.633 Y77.729 E783.96794
G1 X86.637 Y59.733 E788.69079
G1 X87.060 Y58.886 E788.86635
G1 X105.056 Y76.883 E793.58920
G1 X105.479 Y76.037 E793.76475
G1 X87.483 Y58.040 E798.48761
G1 X87.906 Y57.194 E798.66316
G1 X105.902 Y75.190 E803.38601
G1 X106.325 Y74.344 E803.56157
G1 X88.329 Y56.348 E808.28442
G1 X88.752 Y55.502 E808.45997
G1 X106.748 Y73.498 E813.18282
G1 X107.171 Y72.652 E813.35838
G1 X89.175 Y54.656 E818.08123
G1 X89.598 Y53.810 E818.25679
G1 X107.594 Y71.806 E822.97964
G1 X108.017 Y70.960 E823.15519
G1 X90.021 Y52.963 E827.87804
G1 X90.444 Y52.117 E828.05360
G1 X108.440 Y70.113 E832.77645
G1 X108.863 Y69.267 E832.95201
G1 X90.867 Y51.271 E837.67486
G1 X91.290 Y50.425 E837.85041
G1 X109.287 Y68.421 E842.57326
G1 X109.710 Y67.575 E842.74882
G1 X91.713 Y49.579 E847.47167
G1 X92.137 Y48.733 E847.64723
G1 X110.133 Y66.729 E852.37008
G1 X110.556 Y65.883 E852.54563
G1 X92.560 Y47.886 E857.26848
G1 X92.983 Y47.040 E857.44404
G1 X110.979 Y65.036 E862.16689
G1 X111.402 Y64.190 E862.34245
G1 X93.406 Y46.194 E867.06530
G1 X93.829 Y45.348 E867.24085
G1 X111.825 Y63.344 E871.96370
G1 X112.248 Y62.498 E872.13926
G1 X94.252 Y44.502 E876.86211
G1 X94.675 Y43.656 E877.03767
G1 X112.671 Y61.652 E881.76052
G1 X113.094 Y60.806 E881.93607
G1 X95.098 Y42.809 E886.65893
G1 X95.521 Y41.963 E886.83448
G1 X113.517 Y59.959 E891.55733
G1 X113.940 Y59.113 E891.73289
G1 X95.944 Y41.117 E896.45574
G1 X96.367 Y40.271 E896.63130
G1 X114.364 Y58.267 E901.35415
G1 X114.787 Y57.421 E901.52970
G1 X96.790 Y39.425 E906.25255
G1 X97.213 Y38.579 E906.42811
G1 X115.210 Y56.575 E911.15096
G1 X115.633 Y55.729 E911.32652
G1 X97.637 Y37.733 E916.04937
G1 X98.060 Y36.886 E916.22493
G1 X116.056 Y54.883 E920.94778
G1 X116.479 Y54.036 E921.12333
G1 X98.483 Y36.040 E925.84618
G1 X98.906 Y35.194 E926.02174
G1 X116.902 Y53.190 E930.74459
G1 X117.325 Y52.344 E930.92015
G1 X99.329 Y34.348 E935.64300
G1 X99.752 Y33.502 E935.81856
G1 X117.748 Y51.498 E940.54141
G1 X118.171 Y50.652 E940.71696
G1 X100.175 Y32.656 E945.43981
G1 X100.598 Y31.809 E945.61537
G1 X118.594 Y49.806 E950.33822
G1 X119.017 Y48.959 E950.51378
G1 X101.021 Y30.963 E955.23663
G1 X101.444 Y30.117 E955.41219
G1 X119.440 Y48.113 E960.13504
G1 X119.864 Y47.267 E960.31059
G1 X101.867 Y29.271 E965.03344
G1 X102.290 Y28.425 E965.20900
G1 X120.287 Y46.421 E969.93185
G1 X120.710 Y45.575 E970.10741
G1 X102.714 Y27.579 E974.83026
G1 X103.137 Y26.732 E975.00582
G1 X121.133 Y44.729 E979.72867
G1 X121.556 Y43.882 E979.90422
G1 X103.560 Y25.886 E984.62708
G1 X103.983 Y25.040 E984.80263
G1 X121.979 Y43.036 E989.52548
G1 X122.402 Y42.190 E989.70104
G1 X104.406 Y24.194 E994.42389
G1 X104.829 Y23.348 E994.59945
G1 X122.825 Y41.344 E999.32230
G1 X123.248 Y40.498 E999.49786
G1 X105.252 Y22.502 E1004.22071
G1 X105.675 Y21.655 E1004.39626
G1 X123.671 Y39.652 E1009.11912
G1 X124.094 Y38.806 E1009.29467
G1 X106.098 Y20.809 E1014.01752
G1 X106.521 Y19.963 E1014.19308
G1 X124.517 Y37.959 E1018.91593
G1 X124.940 Y37.113 E1019.09149
G1 X106.944 Y19.117 E1023.81434
G1 X107.367 Y18.271 E1023.98990
G1 X125.364 Y36.267 E1028.71275
G1 X125.787 Y35.421 E1028.88830
G1 X107.790 Y17.425 E1033.61116
G1 X108.214 Y16.579 E1033.78671
G1 X126.210 Y34.575 E1038.50956
G1 X126.633 Y33.729 E1038.68512
G1 X108.637 Y15.732 E1043.40797
G1 X109.079 Y14.905 E1043.58200
G1 X127.056 Y32.882 E1048.29982
G1 X127.479 Y32.036 E1048.47537
G1 X109.543 Y14.101 E1053.18230
G1 X110.008 Y13.296 E1053.35473
G1 X127.902 Y31.190 E1058.05077
G1 X128.325 Y30.344 E1058.22633
G1 X110.543 Y12.562 E1062.89305
G1 X111.144 Y11.894 E1063.05982
G1 X128.748 Y29.498 E1067.67976
G1 X129.171 Y28.652 E1067.85531
G1 X111.746 Y11.226 E1072.42846
G1 X112.441 Y10.652 E1072.59578
G1 X129.594 Y27.805 E1077.09737
G1 X130.017 Y26.959 E1077.27292
G1 X113.176 Y10.118 E1081.69262
G1 X113.912 Y9.584 E1081.86124
G1 X130.441 Y26.113 E1086.19903
G1 X130.864 Y25.267 E1086.37459
G1 X114.780 Y9.183 E1090.59563
G1 X115.658 Y8.792 E1090.77403
G1 X131.211 Y24.345 E1094.85582
G1 X131.522 Y23.387 E1095.04274
G1 X116.587 Y8.452 E1098.96234
G1 X117.634 Y8.229 E1099.16093
G1 X131.818 Y22.413 E1102.88332
G1 X131.938 Y21.265 E1103.09763
G1 X118.680 Y8.007 E1106.57701
G1 X119.937 Y7.995 E1106.81027
G1 X132.059 Y20.116 E1109.99146
G1 X131.937 Y18.725 E1110.25057
G1 X121.207 Y7.995 E1113.06671
G1 X122.804 Y8.322 E1113.36925
G1 X131.729 Y17.247 E1115.71150
G1 X131.118 Y15.367 E1116.07835
G1 X124.703 Y8.953 E1117.76180
G1 X127.974 Y10.954 F7800.000
G1 X128.334 Y11.314 E1117.85644 F1080.000
G1 F1800.000 E1116.85644
G92 E0
G1 X27.025 Y61.045 F7800.000
G1 E1.00000 F1800.000
G1 X84.325 Y118.344 E16.03751 F1080.000
G1 X83.902 Y119.191 E16.21306
G1 X28.295 Y63.583 E30.80644
G1 X29.564 Y66.122 F7800.000
G1 X83.479 Y120.037 E44.95570 F1080.000
G1 X83.056 Y120.883 E45.13126
G1 X30.833 Y68.660 E58.83639
G1 X32.102 Y71.199 F7800.000
G1 X82.633 Y121.729 E72.09740 F1080.000
G1 X82.209 Y122.575 E72.27295
G1 X33.371 Y73.737 E85.08983
G1 X34.641 Y76.276 F7800.000
G1 X81.786 Y123.421 E97.46259 F1080.000
G1 X81.363 Y124.268 E97.63815
G1 X35.910 Y78.814 E109.56678
